X:160
T:Bill Harte's
M:4/4
L:1/8
R:reel
K:Dmix
DEGA BG G2 | BGdB AB GE | DEGA Beed | BAAB A2 GE |
DEGA BG G2 | BGdB AB GE | DEGA Beed | BAAB A2 Bd ||
eA A2 Bdeg | dG G2 GABd | eA A2 Bdeg | dBGB A3d |
eA A2 Bdeg | dG G2 GABd | eggg edea | gedB ABGE |]
